nextgisweb/nogeom/icon/resource/nogeom_connection.svg

<svg version="1.1" viewBox="0 0 16 16" xmlns="http://www.w3.org/2000/svg">
<g>
<path d="m2.884 5c-.552 0-1-.448-1-1v-3c0-.552.448-1 1-1s1 .448 1 1v3c0 .552-.448 1-1 1z"/>
<path d="m7.384 5c-.552 0-1-.448-1-1v-3c0-.552.448-1 1-1s1 .448 1 1v3c0 .552-.448 1-1 1z"/>
</g>
<path d="m11.555 15.86c2.455 0 4.445-1.99 4.445-4.445 0-1.122-.416-2.147-1.102-2.93-.761-.188-1.657-.303-2.716-.329-2.798-.812-4.242 1.219-4.242 2.798l.271 2.933c0 .902-1.173.857-1.173.045v-1.173c0-.541-.451-.767-.451-.767l-.587.722s.135 0 .135.271v.812c0 2.798 3.52 2.978 4.061.271h.632l.333 1.776h.005c.128.011.258.016.389.016z" fill="#808080"/>
<path d="m13.22 7.886c-.677 0-1.263.271-1.715.767v3.52c.451.451 1.038.767 1.715.767 1.354 0 2.437-1.128 2.437-2.527.044-1.399-1.084-2.527-2.437-2.527z"/>
<circle cx="9.61" cy="10.819" r=".451" fill="#fff"/>
<path d="m12.859 7.209c-.632 0-1.309.316-1.76.812v3.79c.451.496 1.128.812 1.76.812 1.263 0 2.346-1.218 2.346-2.707s-1.038-2.707-2.346-2.707z" fill="#808080"/>
<path d="m5.224 12.083.587-.722.189-.233v-1.798h-2v2.5c0 .477.141.919.374 1.299l.85-1.046z"/>
<path d="m9 3.419h-8c-.552 0-1 .448-1 1s.448 1 1 1v1.862c0 2.276 1.8 4.138 4 4.138.288 0 .569-.034.84-.094l.476-.586.472.236c.052-.027.104-.053.155-.083.016-.929.379-1.868 1.007-2.586.3-.343.652-.622 1.041-.837.003-.063.009-.124.009-.188v-1.862c.552 0 1-.448 1-1s-.448-1-1-1z" fill="#106a90"/>
</svg>

<svg xmlns="http://www.w3.org/2000/svg"  id="nogeom_connection" viewBox="0 0 16 16">
      <g>
        <path style="fill:#B3B9BA" d="M2.884,5c-0.552,0-1-0.448-1-1V1c0-0.552,0.448-1,1-1s1,0.448,1,1v3C3.884,4.552,3.436,5,2.884,5z"/>
      </g>
      <g>
        <path style="fill:#B3B9BA" d="M7.384,5c-0.552,0-1-0.448-1-1V1c0-0.552,0.448-1,1-1s1,0.448,1,1v3C8.384,4.552,7.936,5,7.384,5z"/>
      </g>
      <g>
        <path style="fill:#3498DB" d="M11.555,15.86c2.455,0,4.445-1.99,4.445-4.445c0-1.122-0.416-2.147-1.102-2.93
          c-0.761-0.188-1.657-0.303-2.716-0.329C9.384,7.344,7.94,9.375,7.94,10.954l0.271,2.933c0,0.902-1.173,0.857-1.173,0.045
          c0-1.173,0-0.902,0-1.173c0-0.541-0.451-0.767-0.451-0.767L6,12.714c0,0,0.135,0,0.135,0.271v0.812c0,2.798,3.52,2.978,4.061,0.271
          h0.632l0.333,1.776c0.002,0,0.003,0,0.005,0C11.294,15.855,11.424,15.86,11.555,15.86z"/>
        <path style="fill:#0070C5" d="M13.22,7.886c-0.677,0-1.263,0.271-1.715,0.767v3.52c0.451,0.451,1.038,0.767,1.715,0.767
          c1.354,0,2.437-1.128,2.437-2.527C15.701,9.014,14.573,7.886,13.22,7.886z"/>
        <circle style="fill:#FFFFFF" cx="9.61" cy="10.819" r="0.451"/>
        <path style="fill:#3498DB" d="M12.859,7.209c-0.632,0-1.309,0.316-1.76,0.812v3.79c0.451,0.496,1.128,0.812,1.76,0.812
          c1.263,0,2.346-1.218,2.346-2.707S14.167,7.209,12.859,7.209z"/>
      </g>
      <g>
        <path style="fill:#B3B9BA" d="M5.224,12.083l0.587-0.722L6,11.128V9.33H4v2.5c0,0.477,0.141,0.919,0.374,1.299L5.224,12.083z"/>
      </g>
      <path style="fill:#FFCA28" d="M9,3.419H8.334c0,0,0,0,0,0H1.4c0,0,0,0,0,0H1c-0.552,0-1,0.448-1,1s0.448,1,1,1v1.862
        c0,2.276,1.8,4.138,4,4.138c0.288,0,0.569-0.034,0.84-0.094l0.476-0.586l0.472,0.236c0.052-0.027,0.104-0.053,0.155-0.083
        C6.959,9.963,7.322,9.024,7.95,8.306c0.3-0.343,0.652-0.622,1.041-0.837C8.994,7.406,9,7.345,9,7.281V5.419c0.552,0,1-0.448,1-1
        S9.552,3.419,9,3.419z"/>
</svg>
